X:1
T:Partition sans titre
C:Compositeur / Arrangeur
L:1/8
M:4/4
I:linebreak $
K:G
V:1 treble nm="Violon" snm="Vln."
V:1
"G" PBABc dc (3dcA |"D" FAAA FAFA |"G" PBABc dBcA |1"D" FGAc"G" BG G2 :|2"D" FGAc"G" BGGB |: %5
"C" efga"C#dim" Pge^ce |"D" Aeag fd[df][df] |"C" efga"C#dim" Pge^ce |1"D" ddAd"G" BGGB :|2 %9
"D" ddAd"G" BGGG |] %10
